symbolic/22x22/apps/xnview.svg

<svg xmlns="http://www.w3.org/2000/svg" width="22" height="22" version="1.1">
 <path style="opacity:0.2" d="M 7.9132366,2.502986 C 7.8135966,2.509066 7.7128001,2.524943 7.6124695,2.551846 6.8098244,2.7670633 6.3369053,3.5877214 6.5519744,4.390925 L 7.1349535,6.5700684 C 6.6292144,6.8714024 6.1604268,7.2174205 5.7238892,7.5912365 L 4.0628365,5.9290293 c -0.5875777,-0.5879861 -1.5343908,-0.5879861 -2.1219682,0 -0.5875774,0.5879861 -0.5875774,1.5344797 0,2.1224658 L 3.6185217,9.7303148 C 2.8769499,10.562074 2.1966525,11.340596 1.5219432,11.850826 c -0.69592421,0.511326 -0.69592431,1.789967 0,2.301292 2.9781529,1.854313 4.9779972,6.360882 9.4770818,6.347854 3.3e-4,-1e-6 0.0016,1e-6 0.002,0 4.499085,0.01303 6.498929,-4.493541 9.477082,-6.347854 0.695924,-0.511325 0.695924,-1.789966 0,-2.301292 -0.67444,-0.51002 -1.354389,-1.288166 -2.095602,-2.1195342 l 1.67863,-1.6797967 c 0.587577,-0.5879861 0.587577,-1.5344797 0,-2.1224658 -0.587578,-0.5879861 -1.533414,-0.5879861 -2.120992,0 L 16.277088,7.593191 C 15.843118,7.2214515 15.378111,6.8761879 14.875791,6.5759319 L 15.460724,4.390925 C 15.675792,3.5877215 15.202874,2.7670635 14.400228,2.5518457 13.597583,2.3366279 12.778471,2.8108522 12.563403,3.6140558 l -0.52146,1.9485254 c -0.333687,-0.04586 -0.680176,-0.072268 -1.041942,-0.072312 l -10e-4,0 c -0.357197,4.3e-5 -0.69846,0.02659 -1.0282699,0.071335 L 9.4492951,3.6140558 C 9.2611101,2.9112526 8.6107087,2.4603924 7.9132366,2.502986 Z"/>
 <path style="fill:#ef9202" d="m 7.9132366,2.0029861 c -0.09964,0.00608 -0.2004365,0.021957 -0.3007671,0.048859 -0.8026451,0.2152183 -1.2755642,1.0358764 -1.0604951,1.83908 L 7.1349535,6.0700683 C 6.6292144,6.3714023 6.1604268,6.7174204 5.7238892,7.0912365 L 4.0628365,5.4290292 c -0.5875777,-0.5879861 -1.5343908,-0.5879861 -2.1219682,0 -0.5875774,0.5879861 -0.5875774,1.5344797 0,2.1224658 L 3.6185217,9.2303148 C 2.8769499,10.062074 2.1966525,10.840596 1.5219432,11.350826 c -0.69592421,0.511325 -0.69592431,1.789967 0,2.301292 2.9781529,1.854313 4.9779972,6.360882 9.4770818,6.347854 3.3e-4,-1e-6 0.0016,1e-6 0.002,0 4.499085,0.01303 6.498929,-4.493541 9.477082,-6.347854 0.695924,-0.511325 0.695924,-1.789967 0,-2.301292 -0.67444,-0.51002 -1.354389,-1.288166 -2.095602,-2.1195342 l 1.67863,-1.6797968 c 0.587577,-0.5879861 0.587577,-1.5344797 0,-2.1224658 -0.587578,-0.5879861 -1.533414,-0.5879861 -2.120992,0 L 16.277088,7.093191 C 15.843118,6.7214514 15.378111,6.3761878 14.875791,6.0759318 L 15.460724,3.8909253 C 15.675792,3.0877217 15.202874,2.2670636 14.400228,2.0518458 13.597583,1.8366281 12.778471,2.3108523 12.563403,3.1140559 l -0.52146,1.9485252 c -0.333687,-0.04586 -0.680176,-0.072268 -1.041942,-0.072312 l -10e-4,0 c -0.357197,4.3e-5 -0.69846,0.02659 -1.0282699,0.071335 L 9.4492951,3.1140559 C 9.2611101,2.4112528 8.6107087,1.9603925 7.9132366,2.0029861 Z"/>
 <circle style="opacity:0.2" cx="11" cy="13" r="5.5"/>
 <circle style="fill:#ffffff" cx="11" cy="12.5" r="5.5"/>
 <circle style="fill:#ff5a2e" cx="11" cy="12.5" r="3.5"/>
 <path style="opacity:0.2;fill:#ffffff" d="M 7.9130856,2.0029263 C 7.8134461,2.0090113 7.7126346,2.0248523 7.612304,2.0517544 6.8604594,2.2533508 6.4061169,2.9861776 6.5273434,3.7382781 6.6261834,3.1832478 7.030468,2.7077655 7.612304,2.5517544 7.7126346,2.5248524 7.8134461,2.5090114 7.9130856,2.5029264 8.6105577,2.4603329 9.2610331,2.9114516 9.4492191,3.6142547 l 0.521484,1.947266 c 0.3298099,-0.044745 0.6711229,-0.071246 1.0283199,-0.071289 l 0.001,0 c 0.361766,4.45e-5 0.708305,0.026405 1.041993,0.072265 L 12.5635,3.6142547 C 12.778568,2.8110512 13.597769,2.3365368 14.400415,2.5517545 14.982251,2.7077656 15.386536,3.183248 15.485376,3.7382782 15.606602,2.9861777 15.15226,2.2533509 14.400415,2.0517545 13.597769,1.8365367 12.778568,2.3110511 12.5635,3.1142546 L 12.041992,5.0624971 C 11.708305,5.0166371 11.361766,4.9902761 11,4.9902316 l -10e-4,0 c -0.357197,4.3e-5 -0.69851,0.026545 -1.0283209,0.071289 l -0.52146,-1.947266 C 9.2610331,2.4114515 8.6105577,1.9603327 7.9130856,2.0029263 Z M 3.0019519,4.9882781 c -0.3835977,0 -0.7677349,0.146437 -1.0615236,0.4404301 C 1.5824784,5.7869073 1.4452625,6.2780403 1.5234361,6.7402319 1.573585,6.4437329 1.7108009,6.1584953 1.9404283,5.9287083 c 0.5875774,-0.5879861 1.534493,-0.5879861 2.1220707,0 L 5.7236322,7.590818 C 6.1601698,7.217002 6.6290259,6.8716439 7.134765,6.5703099 L 7.021484,6.1455053 C 6.5602199,6.4297724 6.1263203,6.7459874 5.7236322,7.090818 L 4.062499,5.4287082 C 3.7687102,5.1347151 3.3855496,4.9882781 3.0019519,4.9882781 Z m 15.9990261,0 c -0.383354,0 -0.766758,0.146437 -1.060547,0.4404301 L 16.277345,7.092771 C 15.877224,6.7500264 15.447067,6.4345704 14.989259,6.1513643 l -0.113282,0.4248051 c 0.50232,0.300256 0.967398,0.6448621 1.401368,1.0166016 l 1.663086,-1.6640627 c 0.587577,-0.5879861 1.533516,-0.5879861 2.121094,0 0.229627,0.229787 0.366843,0.5150246 0.416992,0.8115236 C 20.556691,6.2780403 20.419474,5.7869073 20.061525,5.4287082 19.767736,5.1347151 19.384331,4.9882781 19.000978,4.9882781 Z M 3.3798817,9.4921858 C 2.7320367,10.218839 2.1213572,10.896946 1.521483,11.350584 1.1080183,11.654374 0.94657939,12.228299 1.0244125,12.751952 1.0774655,12.393944 1.238833,12.058259 1.521483,11.850584 2.1961922,11.340354 2.8765912,10.562227 3.618163,9.7304668 L 3.3798817,9.4921858 Z m 15.2412133,10e-4 -0.238281,0.238281 c 0.741213,0.8313682 1.421263,1.6091202 2.095703,2.1191412 0.28265,0.207675 0.444018,0.543359 0.497071,0.901367 0.07783,-0.523653 -0.08361,-1.097577 -0.497071,-1.401367 -0.59957,-0.453403 -1.209972,-1.131204 -1.857422,-1.8574222 z"/>
</svg>

<svg xmlns="http://www.w3.org/2000/svg" width="22" height="22"><path style="opacity:.2" d="M7.913 2.503a1.499 1.499 0 0 0-1.361 1.888l.583 2.18c-.506.3-.975.646-1.411 1.02L4.063 5.93a1.497 1.497 0 0 0-2.122 0 1.498 1.498 0 0 0 0 2.122l1.678 1.68c-.742.831-1.422 1.61-2.097 2.12-.696.511-.696 1.79 0 2.301C4.5 16.006 6.5 20.513 10.999 20.5h.002c4.5.013 6.499-4.494 9.477-6.348.696-.511.696-1.79 0-2.301-.674-.51-1.354-1.288-2.095-2.12l1.678-1.68a1.498 1.498 0 0 0 0-2.122 1.496 1.496 0 0 0-2.12 0l-1.664 1.664a10.217 10.217 0 0 0-1.401-1.017l.585-2.185a1.499 1.499 0 0 0-1.06-1.84 1.497 1.497 0 0 0-1.838 1.063l-.521 1.949A7.638 7.638 0 0 0 11 5.49h-.001c-.357 0-.698.027-1.028.072l-.522-1.948a1.497 1.497 0 0 0-1.536-1.111z"/><path style="fill:#ef9202" d="M7.913 2.003a1.499 1.499 0 0 0-1.361 1.888l.583 2.18c-.506.3-.975.646-1.411 1.02L4.063 5.43a1.497 1.497 0 0 0-2.122 0 1.498 1.498 0 0 0 0 2.122l1.678 1.68c-.742.831-1.422 1.61-2.097 2.12-.696.511-.696 1.79 0 2.301C4.5 15.506 6.5 20.013 10.999 20h.002c4.5.013 6.499-4.494 9.477-6.348.696-.511.696-1.79 0-2.301-.674-.51-1.354-1.288-2.095-2.12l1.678-1.68a1.498 1.498 0 0 0 0-2.122 1.496 1.496 0 0 0-2.12 0l-1.664 1.664a10.217 10.217 0 0 0-1.401-1.017l.585-2.185a1.499 1.499 0 0 0-1.06-1.84 1.497 1.497 0 0 0-1.838 1.063l-.521 1.949A7.638 7.638 0 0 0 11 4.99h-.001c-.357 0-.698.027-1.028.072l-.522-1.948a1.497 1.497 0 0 0-1.536-1.111z"/><circle style="opacity:.2" cx="11" cy="13" r="5.5"/><circle style="fill:#fff" cx="11" cy="12.5" r="5.5"/><circle style="fill:#ff5a2e" cx="11" cy="12.5" r="3.5"/><path style="opacity:.2;fill:#fff" d="M7.913 2.003a1.492 1.492 0 0 0-1.386 1.735 1.494 1.494 0 0 1 1.386-1.235A1.497 1.497 0 0 1 9.45 3.614l.522 1.948c.33-.045.67-.072 1.028-.072H11c.362 0 .708.027 1.042.072l.521-1.948a1.497 1.497 0 0 1 2.922.124A1.492 1.492 0 0 0 14.4 2.052a1.497 1.497 0 0 0-1.837 1.062l-.521 1.948A7.639 7.639 0 0 0 11 4.99h-.001c-.357 0-.699.027-1.028.072l-.522-1.948a1.497 1.497 0 0 0-1.536-1.111zM3.002 4.988c-.384 0-.768.147-1.062.44-.358.359-.495.85-.417 1.312a1.497 1.497 0 0 1 2.54-.812l1.66 1.663a10.2 10.2 0 0 1 1.412-1.02l-.114-.425c-.46.284-.895.6-1.297.945L4.062 5.429a1.494 1.494 0 0 0-1.06-.44zm15.999 0c-.383 0-.767.147-1.06.44l-1.664 1.665c-.4-.343-.83-.658-1.288-.942l-.113.425c.502.3.967.645 1.401 1.017l1.663-1.664a1.496 1.496 0 0 1 2.539.811 1.495 1.495 0 0 0-.417-1.311A1.494 1.494 0 0 0 19 4.989zM3.38 9.492c-.648.727-1.259 1.405-1.859 1.859-.413.303-.574.877-.497 1.401.053-.358.215-.694.497-.901.675-.51 1.356-1.289 2.097-2.12l-.238-.239zm15.241.001-.238.238c.741.832 1.421 1.61 2.096 2.12.282.207.444.543.497.901.077-.524-.084-1.098-.497-1.401-.6-.454-1.21-1.132-1.858-1.858z"/></svg>
